src/Pure/16/symbolic/actions/twitter-profile-symbolic.svg

<?xml version="1.0" encoding="UTF-8" standalone="no"?>
<svg
   width="16"
   height="16"
   version="1.1"
   id="svg1"
   sodipodi:docname="twitter-profile-symbolic.svg"
   inkscape:version="1.4.2 (ebf0e940d0, 2025-05-08)"
   xmlns:inkscape="http://www.inkscape.org/namespaces/inkscape"
   xmlns:sodipodi="http://sodipodi.sourceforge.net/DTD/sodipodi-0.dtd"
   xmlns="http://www.w3.org/2000/svg"
   xmlns:svg="http://www.w3.org/2000/svg">
  <defs
     id="defs1">
    <style
       id="current-color-scheme"
       type="text/css">
        .ColorScheme-Text { color:#363636; }
     </style>
  </defs>
  <sodipodi:namedview
     id="namedview1"
     pagecolor="#ffffff"
     bordercolor="#000000"
     borderopacity="0.25"
     inkscape:showpageshadow="2"
     inkscape:pageopacity="0.0"
     inkscape:pagecheckerboard="0"
     inkscape:deskcolor="#d1d1d1"
     inkscape:zoom="49.6875"
     inkscape:cx="8"
     inkscape:cy="8"
     inkscape:window-width="1920"
     inkscape:window-height="1010"
     inkscape:window-x="0"
     inkscape:window-y="0"
     inkscape:window-maximized="1"
     inkscape:current-layer="svg1" />
  <path
     id="path1"
     style="fill:currentColor"
     class="ColorScheme-Text"
     d="M 8 0 A 8 8 0 0 0 0 8 A 8 8 0 0 0 6.6621094 15.884766 A 8 8 0 0 0 7.4550781 15.980469 A 8 8 0 0 0 8 16 A 8 8 0 0 0 9.5898438 15.839844 A 8 8 0 0 0 10.363281 15.642578 A 8 8 0 0 0 13.220703 14.058594 A 8 8 0 0 0 13.558594 13.751953 A 6 6 0 0 0 13.554688 13.744141 A 8 8 0 0 0 16 8 A 8 8 0 0 0 8 0 z M 8 1 A 7 7 0 0 1 15 8 A 7 7 0 0 1 13.072266 12.810547 A 6 6 0 0 0 8 10 A 6 6 0 0 0 2.9238281 12.814453 A 7 7 0 0 1 1 8 A 7 7 0 0 1 8 1 z M 8 4 A 2 2 0 0 0 6 6 A 2 2 0 0 0 8 8 A 2 2 0 0 0 10 6 A 2 2 0 0 0 8 4 z " />
</svg>

<svg width="16" height="16" version="1.1" xmlns="http://www.w3.org/2000/svg">
 <path class="ColorScheme-Text" d="m8 4e-6a8 8 0 0 0-8 8 8 8 0 0 0 6.6621 7.8848 8 8 0 0 0 0.79297 0.0957 8 8 0 0 0 0.54492 0.01953 8 8 0 0 0 1.5898-0.16016 8 8 0 0 0 0.77344-0.19727 8 8 0 0 0 2.8574-1.584 8 8 0 0 0 0.33789-0.30664 6 6 0 0 0-0.0039-0.0078 8 8 0 0 0 2.4453-5.7441 8 8 0 0 0-8-8zm0 1a7 7 0 0 1 7 7 7 7 0 0 1-1.9277 4.8105 6 6 0 0 0-5.0723-2.8105 6 6 0 0 0-5.0762 2.8145 7 7 0 0 1-1.9238-4.8145 7 7 0 0 1 7-7zm0 3a2 2 0 0 0-2 2 2 2 0 0 0 2 2 2 2 0 0 0 2-2 2 2 0 0 0-2-2z" color="#363636" fill="#363636"/>
</svg>
